X:1
T:Ei ! wie schmeckt der Coffee süße
T:Johann Sebastian Bach arr. André Papillon 
T:BWV 211/4
%%score 1 { ( 2 4 ) | 3 }
L:1/8
Q:3/16=90
M:3/8
K:D
V:1 treble nm="Flûte, Fl�te"
V:2 treble nm="Piano"
V:4 treble 
V:3 bass 
V:1
 .f(3(g/f/e/).f | .B.e.c |{e} dc/d/B | (3f/e/f/ (3g/f/e/ f- | f/B/(e/d/)(d/c/) | %5
 (3d/e/d/ (3c/d/c/ B | A/4B/4c/- c/4d/4e/4f/4 g/4f/4e/ | a/d/(f/e/)(d/c/) | %8
 d-d/4D/4E/4F/4G/4A/4B/4c/4 | (3d/A/d/ (3f/a/g/ (3f/e/d/ | (3c/e/c/ (3A/B/c/ (3^d/e/f/ | %11
 (3e/B/e/ (3g/b/a/ (3g/f/e/ | (3d/f/d/ (3B/c/d/ (3e/f/g/ | (3F/^A/c/ (3e/d/c/ .^a | %14
 (3F/B/d/ (3f/e/d/ .b | (3^A/c/e/ (3g/f/e/ .c' | (3B/d/f/ (3b/f/b/ d'- | %17
 (3d'/b/g/ (3e/^d/e/ (3g/f/e/ | (3c'/^a/f/ (3e/^d/e/ (3g/f/e/ | .f.BT^A | %20
 (3B/d/c/ (3B/A/G/ (3F/G/E/ | D z z | (3(B/c/d/) (d/c/)(B/^A/) | (3B/d/f/ (3^a/^g/f/ .d' | %24
 (3F/^A/c/ (3e/d/c/ .^a | D/B/E/B/F/^A/ | B/(c/4d/4e/4f/4^g/4^a/4)b- | %27
 (3b/=a/=g/ (3f/e/d/ (3c/B/A/ | .d.e.c | d-d/4D/4E/4F/4G/4A/4B/4c/4 | (3d/A/d/ (3f/a/g/ (3f/e/d/ | %31
 (3c/e/c/ (3A/c/d/ (3e/f/g/ | (3f/d/f/ (3a/f/a/ d'- | d'- (3d'/c'/b/ (3a/g/f/ | %34
 (3e/B/e/ (3g/b/a/ (3g/f/e/ | (3^d/f/d/ (3B/d/e/ (3f/g/a/ | (3g/e/g/ (3b/g/b/ e'- | %37
 e'!fermata!e z | (3d/e/f/ (3g/f/e/ .f | .B.eTc | (e/d/)(c/d/)(B/c/) | (3d/c/d/ (3e/d/c/ d- | %42
 d/B/(d/c/)(B/^A/) | B3- | B/A/(c/B/)(A/^G/) | A3- | A/F/(A/^G/)(F/^E/) | F2 z | z3 | z3 | z3 | %51
 .c'(3(d'/c'/b/).c' | (fb)T^g | (b/a/)(^g/a/)f | (3c'/b/c'/ (3d'/c'/b/ c'- | c'/f/(b/a/)(a/^g/) | %56
 (b/a/)(^g/f/)a | (3a/f/d/ (3B/^A/B/ (3d/c/B/ | (3^g/^e/c/ (3B/^A/B/ (3d/c/B/ | c(a/^g/)(f/^e/) | %60
 f- (3f/d/c/ (3B/A/G/ | (3F/A/d/ (3f/e/d/ .a | (3A/c/e/ (3g/f/e/ .c' | z3 | %64
 (3E/A/c/ (3e/d/c/ (3g/f/e/ | (3c'/g/e/ (3c/B/c/ (3e/d/c/ | (3f/d/B/ (3F/E/F/ (3A/^G/F/ | ^G z z | %68
 z3 | (3A/d/f/ (3a/^g/f/ .b | (3E/^G/B/ (3d/c/B/ (3^g/d/B/ | (3A/^G/A/ a2 | %72
 (3A/^G/A/ (3a/^g/f/ (3e/d/c/ | (3d/c/B/ (3A/^G/F/ E | z3 | (3z/ c/d/ (3e/d/c/ (3B/c/A/ | %76
 (3E/^G/B/ (3d/c/B/ .^g | (3E/A/c/ (3e/d/c/ .a | (3^G/B/d/ (3f/e/d/ .b | (3A/c/e/ (3a/e/a/ c'- | %80
 (3c'/a/f/ (3d/c/d/ (3f/e/d/ | (3b/^g/e/ (3d/c/d/ (3f/e/d/ | .e.A.^G | A- (3A/B/c/ (3c/d/e/ | %84
 (3e/d/c/ (3c/B/^A/ (3A/^G/F/ | (3F/B/d/ (3f/e/d/ (3a/g/f/ | .g z2 | (3D/F/A/ (3d/c/B/ (3c/e/a/ | %88
 (3c'/b/a/ .e' z | ^A3- | (3A/c/d/ (3e/g/f/ (3e/d/c/ | (3B/d/e/ (3f/a/^g/ (3f/^e/f/ | %92
 (3^E/^G/B/ (3d/c/B/ .^g | (3^G/B/^e/ (3^g/f/e/ .c' | z3 | (3F/B/d/ (3f/e/d/ .d' | z3 | %97
 (3E/A/c/ (3e/d/c/ a- | (3a/=c'/b/ (3a/g/f/ (3f/e/^d/ | (3^d/^c/B/ (3B/A/G/ (3G/F/E/ | .=c z z | %101
 (3=c'/b/a/ (3f/e/f/ (3a/g/f/ | (3g/e/B/ (3A/G/A/ (3f/e/^d/ | e z2 | z3 | f(3(g/f/e/)f | .B.eTc | %107
{e} dc/d/B | (3b/a/b/ (3=c'/b/a/ b- | b/e/(a/g/)(g/f/) | (3g/a/g/ (3f/g/f/ (3e/f/g/ | %111
 ^A/4B/4c/- c/4d/4e/4f/4 g/4f/4e/ | f/B/(d/c/)(B/^A/) | (3B/d/c/ (3B/A/G/ (3F/G/E/ | D z2 | %115
 (3(B/c/d/) (d/c/)(B/^A/) | (3B/d/f/ (3^a/^g/f/ .d' | (3F/^A/c/ (3e/d/c/ .^a | D/B/E/B/F/^A/ | %119
 B/c/4d/4e/4f/4^g/4^a/4b- | (3b/a/g/ (3f/e/d/ (3c/B/A/ | .d.e.c | d-d/4D/4E/4F/4G/4A/4B/4c/4 | %123
 (3d/A/d/ (3f/a/g/ (3f/e/d/ | (3c/e/c/ (3A/c/d/ (3e/f/g/ | (3f/d/f/ (3a/f/a/ d'- | %126
 d'- (3d'/c'/b/ (3a/g/f/ | (3e/B/e/ (3g/b/a/ (3g/f/e/ | (3^d/f/d/ (3B/d/e/ (3f/g/a/ | %129
 (3g/e/g/ (3b/g/b/ e'- | e'!fermata!e z | (3d/c/d/ (3e/d/c/ d- | (3d/f/d/ (3G/E/F/ (3^G/^A/B/ | %133
 (3c/B/c/ (3d/c/B/ c- | (3c/^A/c/ (3d/f/e/ (3d/c/B/ | (3b/^a/b/ (3c'/b/a/ b- | %136
 (3b/^a/b/ (3c'/b/a/ b- | (3b/c'/b/ (3^a/g/f/ (3e/d/c/ | (3d/c/d/ (3e/d/c/ (3d/c/B/ | %139
 (3c/d/e/ (d/c/)(B/^A/) | B/F/-F/^G/4^A/4B/4c/4d/4e/4 | (3f/e/f/ (3g/f/e/ .f | .B.eTc | %143
 B- (3B/B/c/ (3^d/e/f/ | f3- | (3f/=c'/b/ (3a/g/f/ (3g/f/e/ | e3- | (3e/g/f/ (3e/d/c/ (3d/c/B/ | %148
 ^a z2 | z3 | z3 | .f(3(g/f/e/).f | .B.e.c |{e} dc/d/B | (3f/e/f/ (3g/f/e/ f- | f/B/(e/d/)(d/c/) | %156
 (3d/e/d/ (3c/d/c/ B | A/4B/4c/- c/4d/4e/4f/4 g/4f/4e/ | a/d/(f/e/)(d/c/) | %159
 d-d/4D/4E/4F/4G/4A/4B/4c/4 | (3d/A/d/ (3f/a/g/ (3f/e/d/ | (3c/e/c/ (3A/B/c/ (3^d/e/f/ | %162
 (3e/B/e/ (3g/b/a/ (3g/f/e/ | (3d/f/d/ (3B/c/d/ (3e/f/g/ | (3F/^A/c/ (3e/d/c/ .^a | %165
 (3F/B/d/ (3f/e/d/ .b | (3^A/c/e/ (3g/f/e/ .c' | (3B/d/f/ (3b/f/b/ d'- | %168
 (3d'/b/g/ (3e/^d/e/ (3g/f/e/ | (3c'/^a/f/ (3e/^d/e/ (3g/f/e/ | .f.BT^A | B3 |] %172
V:2
 [DF] z [CF] | EG[EF] | F3 | CDC | DG[EF] | F3 | ECG | [DF]2 E | [A,DF]2 [CE] | DF z | %10
w: ||||||||||
 [CE]2 [A,^D] | EG z | F G2 | [^A,C]E z | [F,B,]D z | [^A,E-][CEF] z | F3 | [DB]3 | [EF]2 [CF] | %19
w: |||||||||
 F2 F | [B,DF]3 | f (3g/f/e/ f | B e c | d c/d/B | f (3g/f/e/ f | B e c | d c/d/B | G3/2 B/ A | %28
w: ||Ei!~ wie~ _ _ schmeckt~|der~ Cof- fee~|sü- ße,~ _ _|lieb- li- * * cher~|als~ tau- send~|Küs- se,~ _ _|mil- der~ als~|
 A G/F/ E/D/ | D2 z | f2 z | e2 z | A d f | f e z | g2 z | f2 z | B e3/2f/4g/4 | g !fermata!f z | %38
w: Mus- ka- * ten- *|wein.~|Ei!~|ei!~|wie~ schmeckt~ der~|Cof- fee,~|ei!~|ei!~|ei!~ wie~ _ _|sü- ße.|
 f (3e/d/c/ d | c/d/4e/4 d/c/ B/^A/ | B2 F | f (3g/f/e/ f | B e c | d c/d/B | d3- | d c/B/ c | %46
w: ei!~ wie~ _ _ schmeckt~|der~ _ _ Cof- * fee~ _|sü- ße,~|lieb- li- * * cher~|als~ tau- send~|Küs- se,~ _ _|mil-|* der~ _ als~|
 F B ^G | A2 ^G- | G/F/ F/^E/ d | c F ^E | F2 z | [CFA] z [CFA] | [FB][F^G-d][^EGc] | c3 | c3 | %55
w: Mus- ka- ten-|wein,~ mil-|* * der~ _ als~|Mus- ka- ten-|wein.~|||||
 AdB | AcA | [FA]3 | ^G ^E2 | F2 B | [CFA]2 z | d A2 | e A2 | f/g/ a d | c B/c/A | z F f | dc B | %67
w: ||||||Cof- fee,~|Cof- fee,~|Cof- fee~ muß~ ich~|ha- ben,~ _ _|und~ wenn~|Je- * mand~|
 eA ^G | A3/2B/4c/4 B | d z2 | d z2 | c/ d/ e A | f e2 | ^G3/2 d/ c | f/e/ c B/A/ | A2 z | %76
w: mich _ will~|la- * * ben,~|ach,~|ach,~|ach,~ so~ schenkt~ mir~|Cof- fee,~|ach,~ so~ schenkt~|mir~ _ Cof- fee~ _|ein!~|
 B,[D^G] z | A,[CEA] z | D[EB] z | E3 | FAF | E^GE | AFE | [CE]2 z | c F2 | d B2 | c/ d/ e G | %87
w: ||||||||Cof- fee,~|Cof- fee,~|Cof- fee~ muss~ ich~|
 F2 E | z ^A B | cd e | e/f/g f | d2 c | B z2 | ^e z2 | f/ e/ d e/c/ | d B2 | e/ d/ c d/B/ | %97
w: ha- ben,~|und~ wenn~|Je- * mand~|mich~ _ _ will~|la- ben,~|ach,~|ach,~|ach,~ so~ schenkt~ mir _|Cof- fee,~|schenkt~ mir~ Cof- fee~ _|
 c2 e- | e ^d f- | f e g- | g/ f/ e/d/ d/=c/ | a =c z | B e/d/ =c/B/ | A/G/ F ^d | e2 z | %105
w: ein,~ Cof-|* fee,~ Cof-|* fee,~ ach,~|_ so~ schenkt~ _ mir~ _|Cof- fee,~|ach,~ so~ _ schenkt~ _|mir~ _ Cof- fee~|ein!~|
 [=DF] z [CF] | EG[EF] | [DF]3 | [B,E][A,^D][B,E] | [EA]2 [^DA] | [EG][^DA][EG] | [^A,F]3 | %112
w: |||||||
 FG[EF] | [B,DF]3 | f (3g/f/e/ f | B e c | d c/d/B | f (3g/f/e/ f | B c/d/4e/4 d/c/ | d c/d/B | %120
w: ||Ei!~ wie~ _ _ schmeckt~|der~ Cof- fee~|sü- ße,~ _ _|lieb- li- * * cher~|als~ tau- * * send~ _|Küs- se,~ _ _|
 G3/2 B/ A | A G/F/ E/D/ | D2 z | f2 z | e2 z | A d f | f e z | g2 z | f2 z | B e3/2f/4g/4 | %130
w: mil- der~ als~|Mus- ka- * ten- *|wein.~|Ei!~|ei!~|wie~ schmeckt~ der~|Cof- fee,~|ei!~|ei!~|ei!~ wie~ _ _|
 g!fermata!f z | z z f | fe e | z2 e | e d z | d z g/f/ | d3 | c2 z | f (3g/f/e/ f | B e c | %140
w: sü- ße,~|wie~|sü- * ße,~|wie~|sü- ße,~|ei!~ wie~ _|sü-|ße,~|ei!~ wie~ _ _ schmeckt~|der~ Cof- fee~|
 d c/d/B | d (3e/d/c/ d | c/d/4e/4 d/c/ B/^A/ | B F =c- | cB A | GF E | ^Ac e | gf e- | %148
w: sü- ße,~ _ _|lieb- li- * * cher~|als _ _ tau- * send~ _|Küs- se~ mil-|* * der~|als- * Mus-|ka- * ten-|wein,~ _ mil-|
 e/d/ c/B/ ^A/f/ | e/d/ c/B/ c/^A/ | B2 z | [DF] z [CF] | EG[EF] | F3 | CDC | DG[EF] | F3 | ECG | %158
w: * * der~ _ als~ _|Mus- * ka- * ten- *|wein.~||||||||
 [DF]2 E | [A,DF]2 [CE] | DF z | [CE]2 [A,^D] | EG z | F G2 | [^A,C]E z | [F,B,]D z | %166
w: ||||||||
 [^A,E-][CEF] z | F3 | [DB]3 | [EF]2 [CF] | F2 F | [B,DF]3 |] %172
w: ||||||
V:3
 B, z A, | G,E,F, | B,,F,B, | ^A,B,=A, | G,C,F, | B,,C,D, | C,A,,E,, | F,,G,,A,, | D,,D,E, | %9
 F,D, z | A,G,F, | G,E, z | B,G,E,- | E,C z | D,B, z | C,^A, z | B,,D,B,, | E,G,E, | ^A,,C,E, | %19
 D,E,F, | B,,D,F, | B, z A, | G,E,F, | B,,F,B, | ^A,B,C | DCF, | B,,C,D, | E,F,G, | F,G,A, | %29
 D,F,,E,, | D,,D, z | A,,C, z | D,F,D, | A,,A,^D, | E,E,, z | B,,^D, z | E,G,E, | %37
 ^A,,!fermata!^A, z | B,F,F, | G,E,F, | B,,2 z | B,F,F, | G,E,F, | B,,B,A, | ^G,F,E, | %45
 A,,A,/^G,/F,/E,/ | D,B,,C, | F,,^G,,/A,,/B,,/C,/ | D,C,/B,,/A,,/^G,,/ | A,,B,,C, | F,,A,,C, | %51
 F, z E, | D,B,,C, | F,,C,F, | ^E,F,=E, | D,^G,,C, | F,,A,,F,, | B,,D,B,, | ^E,^G,B, | A,B,C | %60
 F,A,/=G,/F,/E,/ | D, z (3F,/E,/D,/ | C, z (3G,/F,/E,/ | D,C,B,, | A,, z (3C,/D,/E,/ | %65
 ^A,, z (3F,,/^G,,/A,,/ | B,,C,D,- | D,C,B,, | C,A,,E, | F,B,A, | ^G,F,E, | A, z (3C,/B,,/A,,/ | %72
 D, z (3C,/B,,/A,,/ | B,,E,,A,, | D,E,E,, | A,,C,D,- | D,B, z | C,A, z | B,,^G, z | A,,C,A,, | %80
 D,F,D, | ^G,,B,,D, | C,D,E, | A,,C,/B,,/A,,/G,,/ | F,,^A,,F,, | B,,D,B,, | E,C,A,, | D,F,A, | %88
 G,F,E,- | E,D,C,- | C,B,,^A,, | B,,B,A, | ^G,B, z | C,B, z | ^A,F,A, | B,,B,/A,/^G,/F,/ | %96
 ^G,E,G, | A,,A,G, | F,B,A, | G,=CB, | A,G,F, | E,^D,/E,/F,/D,/ | E,/D,/=C,/B,,/A,,/G,,/ | %103
 =C,A,,B,, | E,,2 z | B, z A, | G,E,F, | B,,B,A, | G,F,G, | =CF,B, | E,F,G, | C,F,E, | D,E,F, | %113
 B,,D,F, | B, z A, | G,E,F, | B,,F,B, | ^A,B,C | DCF, | B,,C,D, | E,F,G, | F,G,A, | D,F,,E,, | %123
 D,,D, z | A,,C, z | D,F,D, | A,,A,^D, | E,E,, z | B,,^D, z | E,G,E, | ^A,,!fermata!^A, z | %131
 B,,B,A, | ^G,^A,B, | ^A,F,A, | B,B,,A,, | G,,F,,E,, | ^E,,E,,E,, | F,,F,^A, | B,F,F, | G,E,F, | %140
 B,,2 z | B,,F,,F,, | G,,E,,F,, | B,, z (3F,,/G,,/A,,/ | ^D,,D,,D,, | E,, z (3E,/F,/G,/ | %146
 C, z (3C,/D,/E,/ | ^A,,B,,G,, | F,,^A,,F,, | B,,F,F,, | B,,D,F, | B, z A, | G,E,F, | B,,F,B, | %154
 ^A,B,=A, | G,C,F, | B,,C,D, | C,A,,E,, | F,,G,,A,, | D,,D,E, | F,D, z | A,G,F, | G,E, z | %163
 B,G,E,- | E,C z | D,B, z | C,^A, z | B,,D,B,, | E,G,E, | ^A,,C,E, | D,E,F, | B,,3 |] %172
V:4
 x3 | B,2 ^A, | [B,D][^A,E]D | x3 | B,2 ^A, | [B,D][^A,C]B, | A,3 | A,B,C | x3 | A,2 x | x3 | %11
 B,2 x | DB,C | x3 | x3 | x3 | DB,D | GEG | C ^A,2 | [B,D]2 [^A,C] | x3 | x3 | x3 | x3 | x3 | x3 | %26
 x3 | x3 | x3 | x3 | x3 | x3 | x3 | x3 | x3 | x3 | x3 | x3 | x3 | x3 | x3 | x3 | x3 | x3 | x3 | %45
 x3 | x3 | x3 | x3 | x3 | x3 | x3 | x3 | F[^E^G][FA] | ^GAG | F2 ^E | F3 | DB,D | C3 | CD^E | x3 | %61
 x3 | x3 | x3 | x3 | x3 | x3 | x3 | x3 | x3 | x3 | x3 | x3 | x3 | x3 | x3 | x3 | x3 | x3 | CA,C | %80
 [A,C]3 | B,3 | C2 B, | x3 | x3 | x3 | x3 | x3 | x3 | x3 | x3 | x3 | x3 | x3 | x3 | x3 | x3 | x3 | %98
 x3 | x3 | x3 | x3 | x3 | x3 | x3 | x3 | B,2 ^A, | x3 | x3 | x3 | B,3 | x3 | B,2 ^A, | x3 | x3 | %115
 x3 | x3 | x3 | x3 | x3 | x3 | x3 | x3 | x3 | x3 | x3 | x3 | x3 | x3 | x3 | x3 | x3 | x3 | x3 | %134
 x3 | x3 | x3 | x3 | x3 | x3 | x3 | x3 | x3 | x3 | x3 | x3 | x3 | x3 | x3 | x3 | x3 | x3 | %152
 B,2 ^A, | [B,D][^A,C]D | x3 | B,2 ^A, | [B,D][^A,C]B, | A,3 | A,B,C | x3 | A,2 x | x3 | B,2 x | %163
 DB,C | x3 | x3 | x3 | DB,D | GEG | C ^A,2 | [B,D]2 [^A,C] | x3 |] %172

